!!!OTL: "Die Schneider" ES SIND EINMAL DREI SCHNEIDER GEWESEN
!!!ARE: Europa, Mitteleuropa, Deutschland, Mittelrhein
!!!SCT: Z1329
!!!YEM: Copyright 1995, estate of Helmut Schaffrath.
**kern
*ICvox
*Ivox
*M6/8
*k[]
*C:
{8G
=1
4G
8G
8G
8A
8B
=2
8.c
16c
8c
8c
8B}
{8A
=3
4G
8G
4F#
8F#
=4
[4.G
4G]}
{8G
=5
8.d
16d
8d
8.e
16e
8e
=6
8.f
16f
8f
8e
8d}
{8d
=7
4c
8c
4d
8d
=8
[4.e
4e]}
{8e
=9
8e
8A
8A
8A
8B
8c#
=10
4d
8d
4d}
{8d
=11
8d
8G
8G
8G
8A
8B
=12
8.c
16c
8c
4c}
{8c
=13
4B
8B
4A
8A
=14
[4.G#
4G#]}
{8E
=15
8.A
16G#
8A
8.B
16A
8B
=16
8.c
16B
8c
4d}
{8d
=17
4e
8e
4f
8B
=18
[4.c
4c]}
==
!!!AGN: Zech -, Schalks - Lied
!!!ONB: ESAC (Essen Associative Code) Database: ZUCCAL
!!!AMT: compound duple
!!!AIN: vox
!!!EED: Helmut Schaffrath
!!!EEV: 1.0
*-
